svgs/sharp-regular/notes-medical.svg

<svg xmlns="http://www.w3.org/2000/svg" viewBox="0 0 512 512"><!--! Font Awesome Pro 6.6.0 by @fontawesome - https://fontawesome.com License - https://fontawesome.com/license (Commercial License) Copyright 2024 Fonticons, Inc. --><path d="M144 416l-48 0 0-48L96 80l0-48 48 0 288 0 48 0 0 48 0 240-96 96-240 0zm220.1-48L432 300.1 432 80 144 80l0 288 220.1 0zM320 128l0 64 64 0 0 64-64 0 0 64-64 0 0-64-64 0 0-64 64 0 0-64 64 0zM296 464l24 0 0 48-24 0L24 512 0 512l0-24L0 152l0-24 48 0 0 24 0 312 248 0z"/></svg>

<svg xmlns="http://www.w3.org/2000/svg" viewBox="0 0 512 512"><!--! Font Awesome Pro 6.4.0 by @fontawesome - https://fontawesome.com License - https://fontawesome.com/license (Commercial License) Copyright 2023 Fonticons, Inc. --><path d="M144 416H96V368 80 32h48H432h48V80 320l-96 96H144zm220.1-48L432 300.1V80H144V368H364.1zM320 128v64h64v64H320v64H256V256H192V192h64V128h64zM296 464h24v48H296 24 0V488 152 128l48 0v24l0 312H296z"/></svg>
